X:392
T:Reel 392
M:4/4
K:Dmaj
L:1/8
AG|FDEC A,DD2|FDAD FAd2|FDED A,D (3DCD |ECA,F GBAG|FDEC A,DD2|FDFA dBAG|FDEC DddB|AFGE FDD|G|FD (3DDD BAG2|FDAD FDDG|FDFD CDEF|GEBE GBAG|FDED CDA,D (3DCD |FDFD FEEG|FABc dedB|AFEG FDD|
